X:31
T:Trip to the Cottage
S:John Moore's Book 2
Z:Transcribed by Taz Tarry 04/2021
%%VWML: Moore1-4494-p27-0
F:http://www.vwml.org/record/Moore2/4494/p27
N: Going from the A part to the B part there is an extra quaver beat in the anacrucis in the ms
M:6/8
L:1/8
K:G
d|dBB BGG|cAA AFD|DGG FAA|GBB ABc|
dBB BGG|cAA AFD|DGG FAA|BGG G2:|
d2|gfe dcB|edc Bcd|ecA dBG|GFG AFD|
gfe dcB|edc Bcd|egf ed^c|g2 g2:|

